X:0535
T:Care thou Canker.
T:A Favourite Catch.
M:C
L:1/8
Q:1/2=96
I: ||
Z:Jack Campin * www.campin.me.uk * 2009
K:D
[V:1] a3b a2d'2 |a3 g g2f2|d3 f f2e2|e3 g    g2f2|
[V:2] f3g f2f2  |f3 e e2d2|A3 A B2B2|c3 e    e2d2|
[V:3] d3d d2d2  |A2A2 B4  |F3 F G2G2|A2A2    D4  |
%
[V:1] a3b abc'd'|a3 g g2f2|d3 f fege|d2c2 {c}d4 |]
[V:2] f3g f2f2  |f3 e e2d2|A2A2 B2ge|d2c2 {c}d4 |]
[V:3] d3d d2d2  |A2A2 B4  |F3 F G2G2|A2A2    D4 |]
<end>
<start>
